assets/MarketChannelLogos/EASEROOM.svg

<svg xmlns="http://www.w3.org/2000/svg" width="596" height="596" fill="none"><g clip-path="url(#a)"><path fill="#fff" d="M297.6 595.3C133.3 595.3 0 462 0 297.6 0 133.3 133.3 0 297.6 0 462 0 595.3 133.3 595.3 297.6c0 164.4-133.3 297.7-297.7 297.7"/><path fill="#fff" d="M584.9 375.9c.5-2 1.1-4 1.6-6z"/><g clip-path="url(#b)"><path fill="#1A305A" fill-rule="evenodd" d="m128.896 266.552-3.32 6.551h7.229c3.976 0 7.229-.22 7.229-.49 0-.909-6.77-12.613-7.297-12.613-.286 0-2.014 2.948-3.841 6.552m408.208-1.148c-3.964 1.757-5.32 2.932-4.19 3.631 1.253.774-.727 5.991-7.898 20.813-5.264 10.879-9.864 19.784-10.225 19.789-.36.004-4.456-7.918-9.101-17.607l-8.448-17.616h-16.52V336h13.034l.362-19.328.363-19.327 7.457 15.396 7.459 15.397h10.763l6.331-13.431c3.483-7.387 9.039-19.168 12.349-26.179 4.247-9 6.558-12.542 7.857-12.044 1.503.578 1.64-.329.748-4.94-.6-3.107-1.117-6.384-1.148-7.285-.077-2.21-2.234-1.941-9.193 1.145m-353.174 9.195c-5.867 2.16-12.309 8.882-13.234 13.809-1.994 10.632 2.926 16.521 17.802 21.304 11.662 3.75 14.773 6.333 12.327 10.236-2.867 4.572-13.515 3.163-23.095-3.055l-4.89-3.175-3.245 6.402-3.243 6.401 8.134 4.378c7.375 3.969 9.173 4.38 19.272 4.409 8.291.025 12.241-.569 15.454-2.322 8.907-4.859 12.088-16.637 6.805-25.186-2.562-4.146-5.656-5.775-21.461-11.295-6.756-2.36-8.954-5.815-5.384-8.468 3.196-2.374 10.755-1.396 18.144 2.35 2.773 1.405 5.206 2.366 5.408 2.136.202-.231 1.685-3.032 3.297-6.226 2.81-5.571 2.833-5.877.549-7.546-5.892-4.307-25.459-6.797-32.64-4.152M47 304.522v30.168H95.627l-.4-6.224-.4-6.225-16.051-.368-16.052-.368v-10.402h28.828V298H62.724v-10.402l16.052-.368 16.051-.368v-11.793l-23.913-.358L47 274.355zm65.027-.709c-6.937 16.169-12.613 29.731-12.613 30.138 0 .406 3.543.739 7.872.739h7.873l2.097-5.242 2.097-5.241h25.638l2.097 5.241 2.098 5.242H166.139l-5.922-14.087a5947.39 5947.39 0 0 1-12.54-30.137l-6.618-16.052H124.64zm114.49.739v30.138h48.482v-13.104h-32.758v-10.483H271.068V298H242.241v-10.483h32.758v-13.103h-48.482zm58.965-.152v30.29h14.289l.389-8.19.391-8.19 5.913-.386 5.914-.387 4.23 8.576 4.228 8.577h17.273l-2.972-4.914a321.157 321.157 0 0 0-6.003-9.477c-3.682-5.541-3.726-6.178-.499-7.203 1.393-.441 3.824-3.468 5.4-6.726 3.45-7.125 3.027-17.101-.955-22.553-4.902-6.712-11.145-8.608-30.236-9.183l-17.362-.524zm77.623-28.237c-24.722 8.965-26.242 43.637-2.466 56.257 7.527 3.994 22.755 3.982 30.45-.023 19.172-9.984 22.519-36.173 6.456-50.522-7.768-6.94-23.749-9.589-34.44-5.712m65.766 1.371c-18.26 8.503-23.211 31.338-10.113 46.641 19.477 22.755 57.398 9.697 56.982-19.621-.125-8.894-2.371-14.734-7.959-20.693-9.083-9.687-25.841-12.413-38.91-6.327m109.657 15.945-6.702 13.961V336H544.828l.377-27.845c.209-15.314.299-28.023.202-28.24-.098-.218-3.193 5.886-6.879 13.564m-238.091-6.071c-.298.301-.541 4.575-.541 9.5v8.954h8.517c9.728 0 13.758-2.601 13.758-8.88 0-6.898-2.978-9.192-12.558-9.681-4.75-.241-8.879-.193-9.176.107m69 1.095c-9.7 4.945-13.112 15.767-7.897 25.047 5.571 9.909 17.252 12.028 25.063 4.544 9.971-9.552 6.158-27.006-6.68-30.572-5.917-1.643-5.212-1.71-10.486.981m70.197-.975c-7.175 2.201-12.636 9.552-12.636 17.011 0 6.606 4.74 14.351 10.17 16.62 15.355 6.415 28.594-10.366 20.511-25.999-3.384-6.542-11.041-9.781-18.045-7.632m-308.77 7.196c-3.45 8.833-6.553 17.054-6.553 17.362-.001.18 3.537.328 7.861.328s7.862-.181 7.862-.401c0-.22-1.718-5.086-3.817-10.811-3.816-10.406-3.817-10.408-5.353-6.478Z" clip-rule="evenodd"/></g><g clip-path="url(#c)"><path fill="#E5822F" fill-rule="evenodd" d="m128.896 266.552-3.32 6.551h7.229c3.976 0 7.229-.22 7.229-.49 0-.909-6.77-12.613-7.297-12.613-.286 0-2.014 2.948-3.841 6.552m408.208-1.148c-3.964 1.757-5.32 2.932-4.19 3.631 1.253.774-.727 5.991-7.898 20.813-5.264 10.879-9.864 19.784-10.225 19.789-.36.004-4.456-7.918-9.101-17.607l-8.448-17.616h-16.52V336h13.034l.362-19.328.363-19.327 7.457 15.396 7.459 15.397h10.763l6.331-13.431c3.483-7.387 9.039-19.168 12.349-26.179 4.247-9 6.558-12.542 7.857-12.044 1.503.578 1.64-.329.748-4.94-.6-3.107-1.117-6.384-1.148-7.285-.077-2.21-2.234-1.941-9.193 1.145m-353.174 9.195c-5.867 2.16-12.309 8.882-13.234 13.809-1.994 10.632 2.926 16.521 17.802 21.304 11.662 3.75 14.773 6.333 12.327 10.236-2.867 4.572-13.515 3.163-23.095-3.055l-4.89-3.175-3.245 6.402-3.243 6.401 8.134 4.378c7.375 3.969 9.173 4.38 19.272 4.409 8.291.025 12.241-.569 15.454-2.322 8.907-4.859 12.088-16.637 6.805-25.186-2.562-4.146-5.656-5.775-21.461-11.295-6.756-2.36-8.954-5.815-5.384-8.468 3.196-2.374 10.755-1.396 18.144 2.35 2.773 1.405 5.206 2.366 5.408 2.136.202-.231 1.685-3.032 3.297-6.226 2.81-5.571 2.833-5.877.549-7.546-5.892-4.307-25.459-6.797-32.64-4.152M47 304.522v30.168H95.627l-.4-6.224-.4-6.225-16.051-.368-16.052-.368v-10.402h28.828V298H62.724v-10.402l16.052-.368 16.051-.368v-11.793l-23.913-.358L47 274.355zm65.027-.709c-6.937 16.169-12.613 29.731-12.613 30.138 0 .406 3.543.739 7.872.739h7.873l2.097-5.242 2.097-5.241h25.638l2.097 5.241 2.098 5.242H166.139l-5.922-14.087a5947.39 5947.39 0 0 1-12.54-30.137l-6.618-16.052H124.64zm114.49.739v30.138h48.482v-13.104h-32.758v-10.483H271.068V298H242.241v-10.483h32.758v-13.103h-48.482zm58.965-.152v30.29h14.289l.389-8.19.391-8.19 5.913-.386 5.914-.387 4.23 8.576 4.228 8.577h17.273l-2.972-4.914a321.157 321.157 0 0 0-6.003-9.477c-3.682-5.541-3.726-6.178-.499-7.203 1.393-.441 3.824-3.468 5.4-6.726 3.45-7.125 3.027-17.101-.955-22.553-4.902-6.712-11.145-8.608-30.236-9.183l-17.362-.524zm77.623-28.237c-24.722 8.965-26.242 43.637-2.466 56.257 7.527 3.994 22.755 3.982 30.45-.023 19.172-9.984 22.519-36.173 6.456-50.522-7.768-6.94-23.749-9.589-34.44-5.712m65.766 1.371c-18.26 8.503-23.211 31.338-10.113 46.641 19.477 22.755 57.398 9.697 56.982-19.621-.125-8.894-2.371-14.734-7.959-20.693-9.083-9.687-25.841-12.413-38.91-6.327m109.657 15.945-6.702 13.961V336H544.828l.377-27.845c.209-15.314.299-28.023.202-28.24-.098-.218-3.193 5.886-6.879 13.564m-238.091-6.071c-.298.301-.541 4.575-.541 9.5v8.954h8.517c9.728 0 13.758-2.601 13.758-8.88 0-6.898-2.978-9.192-12.558-9.681-4.75-.241-8.879-.193-9.176.107m69 1.095c-9.7 4.945-13.112 15.767-7.897 25.047 5.571 9.909 17.252 12.028 25.063 4.544 9.971-9.552 6.158-27.006-6.68-30.572-5.917-1.643-5.212-1.71-10.486.981m70.197-.975c-7.175 2.201-12.636 9.552-12.636 17.011 0 6.606 4.74 14.351 10.17 16.62 15.355 6.415 28.594-10.366 20.511-25.999-3.384-6.542-11.041-9.781-18.045-7.632m-308.77 7.196c-3.45 8.833-6.553 17.054-6.553 17.362-.001.18 3.537.328 7.861.328s7.862-.181 7.862-.401c0-.22-1.718-5.086-3.817-10.811-3.816-10.406-3.817-10.408-5.353-6.478Z" clip-rule="evenodd"/></g></g><defs><clipPath id="a"><path fill="#fff" d="M0 0h595.3v595.3H0z"/></clipPath><clipPath id="b"><path fill="#fff" d="M47 260h232v76H47z"/></clipPath><clipPath id="c"><path fill="#fff" d="M279 260h269v76H279z"/></clipPath></defs></svg>

<svg width="596" height="596" viewBox="0 0 596 596" fill="none" xmlns="http://www.w3.org/2000/svg">
<g clip-path="url(#clip0_74_307)">
<path d="M297.6 595.3C133.3 595.3 0 462 0 297.6C0 133.3 133.3 0 297.6 0C462 0 595.3 133.3 595.3 297.6C595.3 462 462 595.3 297.6 595.3Z" fill="white"/>
<path d="M584.9 375.9C585.4 373.9 586 371.9 586.5 369.9L584.9 375.9Z" fill="white"/>
<g clip-path="url(#clip1_74_307)">
<path fill-rule="evenodd" clip-rule="evenodd" d="M128.896 266.552L125.576 273.103H132.805C136.781 273.103 140.034 272.883 140.034 272.613C140.034 271.704 133.264 260 132.737 260C132.451 260 130.723 262.948 128.896 266.552ZM537.104 265.404C533.14 267.161 531.784 268.336 532.914 269.035C534.167 269.809 532.187 275.026 525.016 289.848C519.752 300.727 515.152 309.632 514.791 309.637C514.431 309.641 510.335 301.719 505.69 292.03L497.242 274.414H488.983H480.722V305.207V336H487.239H493.756L494.118 316.672L494.481 297.345L501.938 312.741L509.397 328.138H514.778H520.16L526.491 314.707C529.974 307.32 535.53 295.539 538.84 288.528C543.087 279.528 545.398 275.986 546.697 276.484C548.2 277.062 548.337 276.155 547.445 271.544C546.845 268.437 546.328 265.16 546.297 264.259C546.22 262.049 544.063 262.318 537.104 265.404ZM183.93 274.599C178.063 276.759 171.621 283.481 170.696 288.408C168.702 299.04 173.622 304.929 188.498 309.712C200.16 313.462 203.271 316.045 200.825 319.948C197.958 324.52 187.31 323.111 177.73 316.893L172.84 313.718L169.595 320.12L166.352 326.521L174.486 330.899C181.861 334.868 183.659 335.279 193.758 335.308C202.049 335.333 205.999 334.739 209.212 332.986C218.119 328.127 221.3 316.349 216.017 307.8C213.455 303.654 210.361 302.025 194.556 296.505C187.8 294.145 185.602 290.69 189.172 288.037C192.368 285.663 199.927 286.641 207.316 290.387C210.089 291.792 212.522 292.753 212.724 292.523C212.926 292.292 214.409 289.491 216.021 286.297C218.831 280.726 218.854 280.42 216.57 278.751C210.678 274.444 191.111 271.954 183.93 274.599ZM47 304.522V334.69H71.3133H95.6267L95.227 328.466L94.8274 322.241L78.7757 321.873L62.7241 321.505V316.304V311.103H77.1378H91.5515V304.552V298H77.1378H62.7241V292.799V287.598L78.7757 287.23L94.8274 286.862V280.966V275.069L70.9137 274.711L47 274.355V304.522ZM112.027 303.813C105.09 319.982 99.4136 333.544 99.4136 333.951C99.4136 334.357 102.957 334.69 107.286 334.69H115.159L117.256 329.448L119.353 324.207H132.172H144.991L147.088 329.448L149.186 334.69H157.662H166.139L160.217 320.603C156.961 312.857 151.319 299.295 147.677 290.466L141.059 274.414H132.85H124.64L112.027 303.813ZM226.517 304.552V334.69H250.758H274.999V328.138V321.586H258.62H242.241V316.345V311.103H256.654H271.068V304.552V298H256.654H242.241V292.759V287.517H258.62H274.999V280.966V274.414H250.758H226.517V304.552ZM285.482 304.4V334.69H292.626H299.771L300.16 326.5L300.551 318.31L306.464 317.924L312.378 317.537L316.608 326.113L320.836 334.69H329.473H338.109L335.137 329.776C333.503 327.074 330.801 322.809 329.134 320.299C325.452 314.758 325.408 314.121 328.635 313.096C330.028 312.655 332.459 309.628 334.035 306.37C337.485 299.245 337.062 289.269 333.08 283.817C328.178 277.105 321.935 275.209 302.844 274.634L285.482 274.11V304.4ZM363.105 276.163C338.383 285.128 336.863 319.8 360.639 332.42C368.166 336.414 383.394 336.402 391.089 332.397C410.261 322.413 413.608 296.224 397.545 281.875C389.777 274.935 373.796 272.286 363.105 276.163ZM428.871 277.534C410.611 286.037 405.66 308.872 418.758 324.175C438.235 346.93 476.156 333.872 475.74 304.554C475.615 295.66 473.369 289.82 467.781 283.861C458.698 274.174 441.94 271.448 428.871 277.534ZM538.528 293.479L531.826 307.44V321.72V336H538.326H544.828L545.205 308.155C545.414 292.841 545.504 280.132 545.407 279.915C545.309 279.697 542.214 285.801 538.528 293.479ZM300.437 287.408C300.139 287.709 299.896 291.983 299.896 296.908V305.862H308.413C318.141 305.862 322.171 303.261 322.171 296.982C322.171 290.084 319.193 287.79 309.613 287.301C304.863 287.06 300.734 287.108 300.437 287.408ZM369.437 288.503C359.737 293.448 356.325 304.27 361.54 313.55C367.111 323.459 378.792 325.578 386.603 318.094C396.574 308.542 392.761 291.088 379.923 287.522C374.006 285.879 374.711 285.812 369.437 288.503ZM439.634 287.528C432.459 289.729 426.998 297.08 426.998 304.539C426.998 311.145 431.738 318.89 437.168 321.159C452.523 327.574 465.762 310.793 457.679 295.16C454.295 288.618 446.638 285.379 439.634 287.528ZM130.864 294.724C127.414 303.557 124.311 311.778 124.311 312.086C124.31 312.266 127.848 312.414 132.172 312.414C136.496 312.414 140.034 312.233 140.034 312.013C140.034 311.793 138.316 306.927 136.217 301.202C132.401 290.796 132.4 290.794 130.864 294.724Z" fill="#1A305A"/>
</g>
<g clip-path="url(#clip2_74_307)">
<path fill-rule="evenodd" clip-rule="evenodd" d="M128.896 266.552L125.576 273.103H132.805C136.781 273.103 140.034 272.883 140.034 272.613C140.034 271.704 133.264 260 132.737 260C132.451 260 130.723 262.948 128.896 266.552ZM537.104 265.404C533.14 267.161 531.784 268.336 532.914 269.035C534.167 269.809 532.187 275.026 525.016 289.848C519.752 300.727 515.152 309.632 514.791 309.637C514.431 309.641 510.335 301.719 505.69 292.03L497.242 274.414H488.983H480.722V305.207V336H487.239H493.756L494.118 316.672L494.481 297.345L501.938 312.741L509.397 328.138H514.778H520.16L526.491 314.707C529.974 307.32 535.53 295.539 538.84 288.528C543.087 279.528 545.398 275.986 546.697 276.484C548.2 277.062 548.337 276.155 547.445 271.544C546.845 268.437 546.328 265.16 546.297 264.259C546.22 262.049 544.063 262.318 537.104 265.404ZM183.93 274.599C178.063 276.759 171.621 283.481 170.696 288.408C168.702 299.04 173.622 304.929 188.498 309.712C200.16 313.462 203.271 316.045 200.825 319.948C197.958 324.52 187.31 323.111 177.73 316.893L172.84 313.718L169.595 320.12L166.352 326.521L174.486 330.899C181.861 334.868 183.659 335.279 193.758 335.308C202.049 335.333 205.999 334.739 209.212 332.986C218.119 328.127 221.3 316.349 216.017 307.8C213.455 303.654 210.361 302.025 194.556 296.505C187.8 294.145 185.602 290.69 189.172 288.037C192.368 285.663 199.927 286.641 207.316 290.387C210.089 291.792 212.522 292.753 212.724 292.523C212.926 292.292 214.409 289.491 216.021 286.297C218.831 280.726 218.854 280.42 216.57 278.751C210.678 274.444 191.111 271.954 183.93 274.599ZM47 304.522V334.69H71.3133H95.6267L95.227 328.466L94.8274 322.241L78.7757 321.873L62.7241 321.505V316.304V311.103H77.1378H91.5515V304.552V298H77.1378H62.7241V292.799V287.598L78.7757 287.23L94.8274 286.862V280.966V275.069L70.9137 274.711L47 274.355V304.522ZM112.027 303.813C105.09 319.982 99.4136 333.544 99.4136 333.951C99.4136 334.357 102.957 334.69 107.286 334.69H115.159L117.256 329.448L119.353 324.207H132.172H144.991L147.088 329.448L149.186 334.69H157.662H166.139L160.217 320.603C156.961 312.857 151.319 299.295 147.677 290.466L141.059 274.414H132.85H124.64L112.027 303.813ZM226.517 304.552V334.69H250.758H274.999V328.138V321.586H258.62H242.241V316.345V311.103H256.654H271.068V304.552V298H256.654H242.241V292.759V287.517H258.62H274.999V280.966V274.414H250.758H226.517V304.552ZM285.482 304.4V334.69H292.626H299.771L300.16 326.5L300.551 318.31L306.464 317.924L312.378 317.537L316.608 326.113L320.836 334.69H329.473H338.109L335.137 329.776C333.503 327.074 330.801 322.809 329.134 320.299C325.452 314.758 325.408 314.121 328.635 313.096C330.028 312.655 332.459 309.628 334.035 306.37C337.485 299.245 337.062 289.269 333.08 283.817C328.178 277.105 321.935 275.209 302.844 274.634L285.482 274.11V304.4ZM363.105 276.163C338.383 285.128 336.863 319.8 360.639 332.42C368.166 336.414 383.394 336.402 391.089 332.397C410.261 322.413 413.608 296.224 397.545 281.875C389.777 274.935 373.796 272.286 363.105 276.163ZM428.871 277.534C410.611 286.037 405.66 308.872 418.758 324.175C438.235 346.93 476.156 333.872 475.74 304.554C475.615 295.66 473.369 289.82 467.781 283.861C458.698 274.174 441.94 271.448 428.871 277.534ZM538.528 293.479L531.826 307.44V321.72V336H538.326H544.828L545.205 308.155C545.414 292.841 545.504 280.132 545.407 279.915C545.309 279.697 542.214 285.801 538.528 293.479ZM300.437 287.408C300.139 287.709 299.896 291.983 299.896 296.908V305.862H308.413C318.141 305.862 322.171 303.261 322.171 296.982C322.171 290.084 319.193 287.79 309.613 287.301C304.863 287.06 300.734 287.108 300.437 287.408ZM369.437 288.503C359.737 293.448 356.325 304.27 361.54 313.55C367.111 323.459 378.792 325.578 386.603 318.094C396.574 308.542 392.761 291.088 379.923 287.522C374.006 285.879 374.711 285.812 369.437 288.503ZM439.634 287.528C432.459 289.729 426.998 297.08 426.998 304.539C426.998 311.145 431.738 318.89 437.168 321.159C452.523 327.574 465.762 310.793 457.679 295.16C454.295 288.618 446.638 285.379 439.634 287.528ZM130.864 294.724C127.414 303.557 124.311 311.778 124.311 312.086C124.31 312.266 127.848 312.414 132.172 312.414C136.496 312.414 140.034 312.233 140.034 312.013C140.034 311.793 138.316 306.927 136.217 301.202C132.401 290.796 132.4 290.794 130.864 294.724Z" fill="#E5822F"/>
</g>
</g>
<defs>
<clipPath id="clip0_74_307">
<rect width="595.3" height="595.3" fill="white"/>
</clipPath>
<clipPath id="clip1_74_307">
<rect width="232" height="76" fill="white" transform="translate(47 260)"/>
</clipPath>
<clipPath id="clip2_74_307">
<rect width="269" height="76" fill="white" transform="translate(279 260)"/>
</clipPath>
</defs>
</svg>
